Newaita-dark/apps/128/preferences-desktop-emoticons.svg

<?xml version="1.0" encoding="UTF-8"?>
<svg xmlns="http://www.w3.org/2000/svg" xmlns:xlink="http://www.w3.org/1999/xlink" width="128pt" height="128pt" viewBox="0 0 128 128" version="1.1">
<defs>
<radialGradient id="radial0" gradientUnits="userSpaceOnUse" cx="450.908936" cy="189.579361" fx="450.908936" fy="189.579361" r="21.166656" gradientTransform="matrix(0.000000696681,-0.31253,-0.562554,-0.000000406154,178.092608,254.381318)">
<stop offset="0" style="stop-color:rgb(0%,0%,0%);stop-opacity:0.313725;"/>
<stop offset="0.222222" style="stop-color:rgb(0%,0%,0%);stop-opacity:0.27451;"/>
<stop offset="1" style="stop-color:rgb(0%,0%,0%);stop-opacity:0;"/>
</radialGradient>
<radialGradient id="radial1" gradientUnits="userSpaceOnUse" cx="450.908936" cy="189.579361" fx="450.908936" fy="189.579361" r="21.166656" gradientTransform="matrix(-0.000000696681,0.31253,0.562554,0.000000406154,-51.080475,-30.109928)">
<stop offset="0" style="stop-color:rgb(0%,0%,0%);stop-opacity:0.313725;"/>
<stop offset="0.222222" style="stop-color:rgb(0%,0%,0%);stop-opacity:0.27451;"/>
<stop offset="1" style="stop-color:rgb(0%,0%,0%);stop-opacity:0;"/>
</radialGradient>
<radialGradient id="radial2" gradientUnits="userSpaceOnUse" cx="450.908936" cy="189.579361" fx="450.908936" fy="189.579361" r="21.166656" gradientTransform="matrix(-0.000000696681,-0.31253,0.562554,-0.000000406154,-51.080475,254.381318)">
<stop offset="0" style="stop-color:rgb(0%,0%,0%);stop-opacity:0.313725;"/>
<stop offset="0.222222" style="stop-color:rgb(0%,0%,0%);stop-opacity:0.27451;"/>
<stop offset="1" style="stop-color:rgb(0%,0%,0%);stop-opacity:0;"/>
</radialGradient>
<radialGradient id="radial3" gradientUnits="userSpaceOnUse" cx="450.908936" cy="189.579361" fx="450.908936" fy="189.579361" r="21.166656" gradientTransform="matrix(0.000000696681,0.31253,-0.562554,0.000000406154,178.0926,-30.10993)">
<stop offset="0" style="stop-color:rgb(0%,0%,0%);stop-opacity:0.313725;"/>
<stop offset="0.222222" style="stop-color:rgb(0%,0%,0%);stop-opacity:0.27451;"/>
<stop offset="1" style="stop-color:rgb(0%,0%,0%);stop-opacity:0;"/>
</radialGradient>
<linearGradient id="linear0" gradientUnits="userSpaceOnUse" x1="255.323059" y1="233.5" x2="255.323044" y2="254.666656" gradientTransform="matrix(0.0534402,0,0,0.250024,49.861545,53.755135)">
<stop offset="0" style="stop-color:rgb(0%,0%,0%);stop-opacity:0.27451;"/>
<stop offset="1" style="stop-color:rgb(0%,0%,0%);stop-opacity:0;"/>
</linearGradient>
<linearGradient id="linear1" gradientUnits="userSpaceOnUse" x1="254" y1="-168.666672" x2="254" y2="233.5" >
<stop offset="0" style="stop-color:rgb(100%,87.843137%,50.980392%);stop-opacity:1;"/>
<stop offset="1" style="stop-color:rgb(100%,83.529412%,30.980392%);stop-opacity:1;"/>
</linearGradient>
<linearGradient id="linear2" gradientUnits="userSpaceOnUse" x1="190.5" y1="-52.25" x2="190.5" y2="11.25" gradientTransform="matrix(1,0,0,1,-10.583338,0)">
<stop offset="0" style="stop-color:rgb(87.843137%,87.843137%,87.843137%);stop-opacity:1;"/>
<stop offset="1" style="stop-color:rgb(93.333333%,93.333333%,93.333333%);stop-opacity:1;"/>
</linearGradient>
<linearGradient id="linear3" gradientUnits="userSpaceOnUse" x1="317.5" y1="-52.25" x2="317.5" y2="11.25" gradientTransform="matrix(1,0,0,1,10.583333,0)">
<stop offset="0" style="stop-color:rgb(87.843137%,87.843137%,87.843137%);stop-opacity:1;"/>
<stop offset="1" style="stop-color:rgb(93.333333%,93.333333%,93.333333%);stop-opacity:1;"/>
</linearGradient>
<linearGradient id="linear4" gradientUnits="userSpaceOnUse" x1="195.791672" y1="11.25" x2="195.791672" y2="-20.5" gradientTransform="matrix(1,0,0,1,-10.583338,0)">
<stop offset="0" style="stop-color:rgb(25.882353%,25.882353%,25.882353%);stop-opacity:1;"/>
<stop offset="1" style="stop-color:rgb(38.039216%,38.039216%,38.039216%);stop-opacity:1;"/>
</linearGradient>
<linearGradient id="linear5" gradientUnits="userSpaceOnUse" x1="312.208344" y1="11.25" x2="312.208344" y2="-20.5" gradientTransform="matrix(1,0,0,1,10.583333,0)">
<stop offset="0" style="stop-color:rgb(25.882353%,25.882353%,25.882353%);stop-opacity:1;"/>
<stop offset="1" style="stop-color:rgb(38.039216%,38.039216%,38.039216%);stop-opacity:1;"/>
</linearGradient>
<linearGradient id="linear6" gradientUnits="userSpaceOnUse" x1="254" y1="117.083344" x2="254" y2="154.125" >
<stop offset="0" style="stop-color:rgb(25.882353%,25.882353%,25.882353%);stop-opacity:1;"/>
<stop offset="1" style="stop-color:rgb(38.039216%,38.039216%,38.039216%);stop-opacity:1;"/>
</linearGradient>
<linearGradient id="linear7" gradientUnits="userSpaceOnUse" x1="254" y1="148.833328" x2="254" y2="122.375" >
<stop offset="0" style="stop-color:rgb(93.72549%,32.54902%,31.372549%);stop-opacity:1;"/>
<stop offset="1" style="stop-color:rgb(89.803922%,22.352941%,20.784314%);stop-opacity:1;"/>
</linearGradient>
</defs>
<g id="surface1">
<path style=" stroke:none;fill-rule:nonzero;fill:url(#radial0);" d="M 72.765625 112.136719 L 83.351562 112.136719 L 83.351562 106.84375 L 72.765625 106.84375 Z M 72.765625 112.136719 "/>
<path style=" stroke:none;fill-rule:nonzero;fill:url(#radial1);" d="M 54.246094 112.136719 L 43.660156 112.136719 L 43.660156 117.429688 L 54.246094 117.429688 Z M 54.246094 112.136719 "/>
<path style=" stroke:none;fill-rule:nonzero;fill:url(#radial2);" d="M 54.246094 112.136719 L 43.660156 112.136719 L 43.660156 106.84375 L 54.246094 106.84375 Z M 54.246094 112.136719 "/>
<path style=" stroke:none;fill-rule:nonzero;fill:url(#radial3);" d="M 72.765625 112.136719 L 83.351562 112.136719 L 83.351562 117.429688 L 72.765625 117.429688 Z M 72.765625 112.136719 "/>
<path style=" stroke:none;fill-rule:nonzero;fill:url(#linear0);" d="M 54.246094 110.8125 L 72.765625 110.8125 L 72.765625 117.429688 L 54.246094 117.429688 Z M 54.246094 110.8125 "/>
<path style="fill-rule:nonzero;fill:url(#linear1);stroke-width:3;stroke-linecap:round;stroke-linejoin:miter;stroke:rgb(20%,20%,20%);stroke-opacity:1;stroke-miterlimit:4;" d="M 254.006994 -168.660675 C 365.058889 -168.660675 455.081542 -78.638022 455.081542 32.413873 C 455.081542 143.465768 365.058889 233.504045 254.006994 233.504045 C 142.939475 233.504045 52.916822 143.465768 52.916822 32.413873 C 52.916822 -78.638022 142.939475 -168.660675 254.006994 -168.660675 Z M 254.006994 -168.660675 " transform="matrix(0.250024,0,0,0.250024,0,53.755133)"/>
<path style=" stroke:none;fill-rule:nonzero;fill:rgb(0%,0%,0%);fill-opacity:0.196078;" d="M 63.507812 112.136719 C 35.652344 112.136719 13.230469 89.710938 13.230469 61.859375 C 13.230469 61.695312 13.230469 61.53125 13.234375 61.367188 C 13.496094 88.992188 35.816406 111.152344 63.507812 111.152344 C 91.195312 111.152344 113.515625 88.992188 113.777344 61.367188 C 113.78125 61.53125 113.78125 61.695312 113.78125 61.859375 C 113.78125 89.710938 91.359375 112.136719 63.507812 112.136719 Z M 63.507812 112.136719 "/>
<path style=" stroke:none;fill-rule:nonzero;fill:rgb(100%,100%,100%);fill-opacity:0.392157;" d="M 63.507812 11.585938 C 35.652344 11.585938 13.230469 34.007812 13.230469 61.859375 C 13.230469 62.023438 13.230469 62.1875 13.234375 62.351562 C 13.496094 34.726562 35.816406 12.570312 63.507812 12.570312 C 91.195312 12.570312 113.515625 34.726562 113.777344 62.351562 C 113.78125 62.1875 113.78125 62.023438 113.78125 61.859375 C 113.78125 34.007812 91.359375 11.585938 63.507812 11.585938 Z M 63.507812 11.585938 "/>
<path style=" stroke:none;fill-rule:nonzero;fill:rgb(12.941177%,12.941177%,12.941177%);fill-opacity:1;" d="M 63.507812 11.210938 C 35.453125 11.210938 12.855469 33.804688 12.855469 61.859375 C 12.855469 89.914062 35.453125 112.511719 63.507812 112.511719 C 91.558594 112.511719 114.15625 89.914062 114.15625 61.859375 C 114.15625 33.804688 91.558594 11.210938 63.507812 11.210938 Z M 63.507812 11.960938 C 91.15625 11.960938 113.40625 34.207031 113.40625 61.859375 C 113.40625 89.511719 91.15625 111.761719 63.507812 111.761719 C 35.855469 111.761719 13.605469 89.511719 13.605469 61.859375 C 13.605469 34.207031 35.855469 11.960938 63.507812 11.960938 Z M 63.507812 11.960938 "/>
<path style="fill-rule:nonzero;fill:url(#linear2);stroke-width:3;stroke-linecap:square;stroke-linejoin:round;stroke:rgb(12.941177%,12.941177%,12.941177%);stroke-opacity:1;stroke-miterlimit:4;" d="M 179.920318 -52.249917 C 197.449894 -52.249917 211.667287 -38.032525 211.667287 -20.502949 C 211.667287 -2.957749 197.449894 11.24402 179.920318 11.24402 C 162.375119 11.24402 148.17335 -2.957749 148.17335 -20.502949 C 148.17335 -38.032525 162.375119 -52.249917 179.920318 -52.249917 Z M 179.920318 -52.249917 " transform="matrix(0.250024,0,0,0.250024,0,53.755133)"/>
<path style="fill-rule:nonzero;fill:url(#linear3);stroke-width:3;stroke-linecap:square;stroke-linejoin:round;stroke:rgb(12.941177%,12.941177%,12.941177%);stroke-opacity:1;stroke-miterlimit:4;" d="M 328.078045 -52.249917 C 345.623245 -52.249917 359.840637 -38.032525 359.840637 -20.502949 C 359.840637 -2.957749 345.623245 11.24402 328.078045 11.24402 C 310.548469 11.24402 296.331077 -2.957749 296.331077 -20.502949 C 296.331077 -38.032525 310.548469 -52.249917 328.078045 -52.249917 Z M 328.078045 -52.249917 " transform="matrix(0.250024,0,0,0.250024,0,53.755133)"/>
<path style="fill-rule:nonzero;fill:url(#linear4);stroke-width:3;stroke-linecap:square;stroke-linejoin:round;stroke:rgb(12.941177%,12.941177%,12.941177%);stroke-opacity:1;stroke-miterlimit:4;" d="M 185.201064 -20.502949 C 193.981476 -20.502949 201.090172 -13.394252 201.090172 -4.629464 C 201.090172 4.135324 193.981476 11.24402 185.201064 11.24402 C 176.436276 11.24402 169.32758 4.135324 169.32758 -4.629464 C 169.32758 -13.394252 176.436276 -20.502949 185.201064 -20.502949 Z M 185.201064 -20.502949 " transform="matrix(0.250024,0,0,0.250024,0,53.755133)"/>
<path style="fill-rule:nonzero;fill:url(#linear5);stroke-width:3;stroke-linecap:square;stroke-linejoin:round;stroke:rgb(12.941177%,12.941177%,12.941177%);stroke-opacity:1;stroke-miterlimit:4;" d="M 322.797299 -20.502949 C 331.562087 -20.502949 338.670784 -13.394252 338.670784 -4.629464 C 338.670784 4.135324 331.562087 11.24402 322.797299 11.24402 C 314.016888 11.24402 306.923815 4.135324 306.923815 -4.629464 C 306.923815 -13.394252 314.016888 -20.502949 322.797299 -20.502949 Z M 322.797299 -20.502949 " transform="matrix(0.250024,0,0,0.250024,0,53.755133)"/>
<path style="fill-rule:nonzero;fill:url(#linear6);stroke-width:3;stroke-linecap:square;stroke-linejoin:round;stroke:rgb(12.941177%,12.941177%,12.941177%);stroke-opacity:1;stroke-miterlimit:4;" d="M 190.497433 104.969444 C 243.414255 126.139298 264.584108 126.139298 317.50093 104.969444 C 328.390515 100.610486 338.670784 105.360032 338.670784 117.077663 C 338.670784 128.810918 328.624868 134.544745 317.50093 138.247517 C 269.880478 154.121001 238.117886 154.121001 190.497433 138.247517 C 179.373496 134.544745 169.32758 128.810918 169.32758 117.077663 C 169.32758 105.360032 179.607848 100.610486 190.497433 104.969444 Z M 190.497433 104.969444 " transform="matrix(0.250024,0,0,0.250024,0,53.755133)"/>
<path style="fill-rule:nonzero;fill:url(#linear7);stroke-width:3;stroke-linecap:square;stroke-linejoin:round;stroke:rgb(12.941177%,12.941177%,12.941177%);stroke-opacity:1;stroke-miterlimit:4;" d="M 251.960314 130.748233 L 256.03805 130.748233 C 269.568008 130.748233 280.457593 128.279718 280.457593 135.607144 C 280.457593 142.934569 269.568008 148.840255 256.03805 148.840255 L 251.960314 148.840255 C 238.430356 148.840255 227.540771 142.934569 227.540771 135.607144 C 227.540771 128.279718 238.430356 130.748233 251.960314 130.748233 Z M 251.960314 130.748233 " transform="matrix(0.250024,0,0,0.250024,0,53.755133)"/>
</g>
</svg>

<svg xmlns="http://www.w3.org/2000/svg" width="128pt" height="128pt" viewBox="0 0 128 128"><defs><radialGradient id="a" gradientUnits="userSpaceOnUse" cx="450.909" cy="189.579" fx="450.909" fy="189.579" r="21.167" gradientTransform="matrix(0 -.31253 -.56255 0 178.093 254.381)"><stop offset="0" stop-opacity=".314"/><stop offset=".222" stop-opacity=".275"/><stop offset="1" stop-opacity="0"/></radialGradient><radialGradient id="b" gradientUnits="userSpaceOnUse" cx="450.909" cy="189.579" fx="450.909" fy="189.579" r="21.167" gradientTransform="matrix(0 .31253 .56255 0 -51.08 -30.11)"><stop offset="0" stop-opacity=".314"/><stop offset=".222" stop-opacity=".275"/><stop offset="1" stop-opacity="0"/></radialGradient><radialGradient id="c" gradientUnits="userSpaceOnUse" cx="450.909" cy="189.579" fx="450.909" fy="189.579" r="21.167" gradientTransform="matrix(0 -.31253 .56255 0 -51.08 254.381)"><stop offset="0" stop-opacity=".314"/><stop offset=".222" stop-opacity=".275"/><stop offset="1" stop-opacity="0"/></radialGradient><radialGradient id="d" gradientUnits="userSpaceOnUse" cx="450.909" cy="189.579" fx="450.909" fy="189.579" r="21.167" gradientTransform="matrix(0 .31253 -.56255 0 178.093 -30.11)"><stop offset="0" stop-opacity=".314"/><stop offset=".222" stop-opacity=".275"/><stop offset="1" stop-opacity="0"/></radialGradient><linearGradient id="e" gradientUnits="userSpaceOnUse" x1="255.323" y1="233.5" x2="255.323" y2="254.667" gradientTransform="matrix(.05344 0 0 .25002 49.862 53.755)"><stop offset="0" stop-opacity=".275"/><stop offset="1" stop-opacity="0"/></linearGradient><linearGradient id="f" gradientUnits="userSpaceOnUse" x1="254" y1="-168.667" x2="254" y2="233.5"><stop offset="0" stop-color="#ffe082"/><stop offset="1" stop-color="#ffd54f"/></linearGradient><linearGradient id="g" gradientUnits="userSpaceOnUse" x1="190.5" y1="-52.25" x2="190.5" y2="11.25" gradientTransform="translate(-10.583)"><stop offset="0" stop-color="#e0e0e0"/><stop offset="1" stop-color="#eee"/></linearGradient><linearGradient id="h" gradientUnits="userSpaceOnUse" x1="317.5" y1="-52.25" x2="317.5" y2="11.25" gradientTransform="translate(10.583)"><stop offset="0" stop-color="#e0e0e0"/><stop offset="1" stop-color="#eee"/></linearGradient><linearGradient id="i" gradientUnits="userSpaceOnUse" x1="195.792" y1="11.25" x2="195.792" y2="-20.5" gradientTransform="translate(-10.583)"><stop offset="0" stop-color="#424242"/><stop offset="1" stop-color="#616161"/></linearGradient><linearGradient id="j" gradientUnits="userSpaceOnUse" x1="312.208" y1="11.25" x2="312.208" y2="-20.5" gradientTransform="translate(10.583)"><stop offset="0" stop-color="#424242"/><stop offset="1" stop-color="#616161"/></linearGradient><linearGradient id="k" gradientUnits="userSpaceOnUse" x1="254" y1="117.083" x2="254" y2="154.125"><stop offset="0" stop-color="#424242"/><stop offset="1" stop-color="#616161"/></linearGradient><linearGradient id="l" gradientUnits="userSpaceOnUse" x1="254" y1="148.833" x2="254" y2="122.375"><stop offset="0" stop-color="#ef5350"/><stop offset="1" stop-color="#e53935"/></linearGradient></defs><path d="M72.766 112.137h10.586v-5.293H72.766zm0 0" fill="url(#a)"/><path d="M54.246 112.137H43.66v5.293h10.586zm0 0" fill="url(#b)"/><path d="M54.246 112.137H43.66v-5.293h10.586zm0 0" fill="url(#c)"/><path d="M72.766 112.137h10.586v5.293H72.766zm0 0" fill="url(#d)"/><path d="M54.246 110.813h18.52v6.617h-18.52zm0 0" fill="url(#e)"/><path d="M254.007-168.66c111.052 0 201.075 90.022 201.075 201.074s-90.023 201.09-201.075 201.09c-111.068 0-201.09-90.038-201.09-201.09s90.022-201.075 201.09-201.075zm0 0" transform="matrix(.25002 0 0 .25002 0 53.755)" fill="url(#f)" stroke-width="3" stroke-linecap="round" stroke="#333"/><path d="M63.508 112.137c-27.856 0-50.278-22.426-50.278-50.278 0-.164 0-.328.004-.492.262 27.625 22.582 49.785 50.274 49.785 27.687 0 50.008-22.16 50.27-49.785.003.164.003.328.003.492 0 27.852-22.422 50.278-50.273 50.278zm0 0" fill-opacity=".196"/><path d="M63.508 11.586c-27.856 0-50.278 22.422-50.278 50.273 0 .164 0 .328.004.493.262-27.625 22.582-49.782 50.274-49.782 27.687 0 50.008 22.157 50.27 49.782.003-.164.003-.329.003-.493 0-27.851-22.422-50.273-50.273-50.273zm0 0" fill="#fff" fill-opacity=".392"/><path d="M63.508 11.21c-28.055 0-50.653 22.595-50.653 50.65 0 28.054 22.598 50.652 50.653 50.652 28.05 0 50.648-22.598 50.648-50.653 0-28.054-22.597-50.648-50.648-50.648zm0 .75c27.648 0 49.898 22.247 49.898 49.9 0 27.652-22.25 49.902-49.898 49.902-27.653 0-49.903-22.25-49.903-49.903 0-27.652 22.25-49.898 49.903-49.898zm0 0" fill="#212121"/><path d="M179.92-52.25c17.53 0 31.747 14.217 31.747 31.747 0 17.545-14.217 31.747-31.747 31.747-17.545 0-31.747-14.202-31.747-31.747 0-17.53 14.202-31.747 31.747-31.747zm0 0" transform="matrix(.25002 0 0 .25002 0 53.755)" fill="url(#g)" stroke-width="3" stroke-linecap="square" stroke-linejoin="round" stroke="#212121"/><path d="M328.078-52.25c17.545 0 31.763 14.217 31.763 31.747 0 17.545-14.218 31.747-31.763 31.747-17.53 0-31.747-14.202-31.747-31.747 0-17.53 14.217-31.747 31.747-31.747zm0 0" transform="matrix(.25002 0 0 .25002 0 53.755)" fill="url(#h)" stroke-width="3" stroke-linecap="square" stroke-linejoin="round" stroke="#212121"/><path d="M185.201-20.503c8.78 0 15.89 7.109 15.89 15.874 0 8.764-7.11 15.873-15.89 15.873-8.765 0-15.873-7.109-15.873-15.873 0-8.765 7.108-15.874 15.873-15.874zm0 0" transform="matrix(.25002 0 0 .25002 0 53.755)" fill="url(#i)" stroke-width="3" stroke-linecap="square" stroke-linejoin="round" stroke="#212121"/><path d="M322.797-20.503c8.765 0 15.874 7.109 15.874 15.874 0 8.764-7.109 15.873-15.874 15.873-8.78 0-15.873-7.109-15.873-15.873 0-8.765 7.093-15.874 15.873-15.874zm0 0" transform="matrix(.25002 0 0 .25002 0 53.755)" fill="url(#j)" stroke-width="3" stroke-linecap="square" stroke-linejoin="round" stroke="#212121"/><path d="M190.497 104.97c52.917 21.17 74.087 21.17 127.004 0 10.89-4.36 21.17.39 21.17 12.108 0 11.733-10.046 17.467-21.17 21.17-47.62 15.873-79.383 15.873-127.004 0-11.124-3.703-21.17-9.437-21.17-21.17 0-11.718 10.28-16.468 21.17-12.109zm0 0" transform="matrix(.25002 0 0 .25002 0 53.755)" fill="url(#k)" stroke-width="3" stroke-linecap="square" stroke-linejoin="round" stroke="#212121"/><path d="M251.96 130.748h4.078c13.53 0 24.42-2.468 24.42 4.86 0 7.327-10.89 13.232-24.42 13.232h-4.078c-13.53 0-24.42-5.905-24.42-13.233 0-7.327 10.89-4.859 24.42-4.859zm0 0" transform="matrix(.25002 0 0 .25002 0 53.755)" fill="url(#l)" stroke-width="3" stroke-linecap="square" stroke-linejoin="round" stroke="#212121"/></svg>
